icons/icn_x2.svg

<svg width="24" xmlns="http://www.w3.org/2000/svg" height="24" id="screenshot-07e9d773-d858-80af-8006-8f463cbe498f" viewBox="0 0 24 24" xmlns:xlink="http://www.w3.org/1999/xlink" fill="none" version="1.1"><g id="shape-07e9d773-d858-80af-8006-8f463cbe498f"><g class="frame-container-wrapper"><g class="frame-container-blur"><g class="frame-container-shadows"><g fill="none"><g class="fills" id="fills-07e9d773-d858-80af-8006-8f463cbe498f"><rect rx="0" ry="0" x="0" y="0" width="24" height="24.000000000000455" transform="matrix(1, 0, 0, 1, 0, 0)" class="frame-background"/></g><g class="frame-children"><g id="shape-07e9d773-d858-80af-8006-8f46099e0503" rx="0" ry="0"><g id="shape-07e9d773-d858-80af-8006-8f45be76a928" style="opacity: 1;"><g class="fills" id="fills-07e9d773-d858-80af-8006-8f45be76a928"><path d="M3.56130051612854,7.888916015625C3.39333176612854,7.915283203125,3.23854660987854,7.99462890625,3.11818528175354,8.115478515625C2.96803879737854,8.265869140625,2.88307785987854,8.4698486328125,2.88307785987854,8.6824951171875C2.88307785987854,8.8956298828125,2.96803879737854,9.099609375,3.11818528175354,9.25L6.368185043334961,12.498046875L3.11818528175354,15.748291015625C2.80739426612854,16.0611572265625,2.80739426612854,16.5662841796875,3.11818528175354,16.8792724609375C3.26882004737854,17.030029296875,3.47340989112854,17.115478515625,3.68678879737854,17.115478515625C3.89992356300354,17.115478515625,4.104757308959961,17.030029296875,4.255147933959961,16.8792724609375L7.501241683959961,13.631103515625L10.751241683959961,16.8792724609375C11.063985824584961,17.190185546875,11.568868637084961,17.190185546875,11.881612777709961,16.8792724609375C12.192647933959961,16.5662841796875,12.192647933959961,16.0611572265625,11.881612777709961,15.748291015625L8.633565902709961,12.498046875L11.881612777709961,9.25C12.032979965209961,9.099609375,12.116964340209961,8.8956298828125,12.116964340209961,8.6824951171875C12.116964340209961,8.4698486328125,12.032979965209961,8.265869140625,11.881612777709961,8.115478515625C11.568868637084961,7.8045654296875,11.063985824584961,7.8045654296875,10.751241683959961,8.115478515625L7.501241683959961,11.3653564453125L4.255147933959961,8.115478515625C4.073507308959961,7.932861328125,3.81593918800354,7.848876953125,3.56130051612854,7.888916015625Z" style="display: inline; stroke-width: 0.424392; stroke-linecap: round; stroke-linejoin: bevel; fill: rgb(0, 0, 0); fill-opacity: 1;"/></g></g><g id="shape-07e9d773-d858-80af-8006-8f45be7719f8" style="opacity: 1;"><g class="fills" id="fills-07e9d773-d858-80af-8006-8f45be7719f8"><path d="M20.93825340270996,15.7816162109375L20.93825340270996,17.031494140625L14.584493637084961,17.031494140625L14.584493637084961,15.9573974609375L17.66994285583496,12.5911865234375C18.00856590270996,12.2095947265625,18.27516746520996,11.8797607421875,18.47072410583496,11.6015625C18.66554832458496,11.3238525390625,18.80299949645996,11.0743408203125,18.88063621520996,10.853271484375C18.96364402770996,10.627685546875,19.00417137145996,10.407958984375,19.00417137145996,10.1953125C19.00417137145996,9.8958740234375,18.94777488708496,9.6334228515625,18.83547019958496,9.4078369140625C18.72633934020996,9.1776123046875,18.56569480895996,8.9976806640625,18.35353660583496,8.8675537109375C18.14040184020996,8.7327880859375,17.88234519958496,8.66552734375,17.57863426208496,8.66552734375C17.22707176208496,8.66552734375,16.93190574645996,8.7415771484375,16.69362449645996,8.8934326171875C16.45461082458496,9.045654296875,16.27467918395996,9.2559814453125,16.15309715270996,9.5250244140625C16.03127098083496,9.789794921875,15.970235824584961,10.0933837890625,15.970235824584961,10.4366455078125L14.401632308959961,10.4366455078125C14.401632308959961,9.88525390625,14.527120590209961,9.3819580078125,14.779073715209961,8.9261474609375C15.030782699584961,8.4661865234375,15.395528793334961,8.1011962890625,15.873311996459961,7.8321533203125C16.35036277770996,7.55859375,16.92531394958496,7.422119140625,17.59816551208496,7.422119140625C18.23171043395996,7.422119140625,18.76979637145996,7.5286865234375,19.21291160583496,7.7413330078125C19.65553855895996,7.9541015625,19.99147605895996,8.2552490234375,20.22218894958496,8.6461181640625C20.45656394958496,9.036865234375,20.57375144958496,9.4991455078125,20.57375144958496,10.032958984375C20.57375144958496,10.3277587890625,20.52589988708496,10.6207275390625,20.42995262145996,10.911865234375C20.33473777770996,11.2025146484375,20.19826316833496,11.4931640625,20.02028465270996,11.7843017578125C19.84670066833496,12.0703125,19.64015769958496,12.359130859375,19.40212059020996,12.6497802734375C19.16310691833496,12.936279296875,18.89992332458496,13.2274169921875,18.61379051208496,13.5223388671875L16.56276512145996,15.7816162109375Z" style="font-family: roboto; stroke-width: 1.73333; stroke-linejoin: round; font-weight: 500; white-space: pre; display: inline; font-size: 13.3333px; stroke-linecap: square; fill: rgb(0, 0, 0); fill-opacity: 1;"/></g></g></g></g></g></g></g></g></g></svg>

<svg fill="none" viewBox="0 0 24 24"><g class="frame-container-wrapper"><g class="frame-container-blur"><g class="frame-container-shadows"><g class="fills"><rect width="24" height="24" class="frame-background" rx="0" ry="0"/></g><g class="frame-children"><path fill="#000" d="M3.5613 7.889a.8002.8002 0 0 0-.4431.2265.8032.8032 0 0 0-.2351.567c0 .2131.085.4171.235.5675l3.25 3.248-3.25 3.2503a.8025.8025 0 0 0 0 1.131.8045.8045 0 0 0 .5687.2362.804.804 0 0 0 .5683-.2362l3.2461-3.2482 3.25 3.2482a.8015.8015 0 0 0 1.1304 0 .802.802 0 0 0 0-1.131l-3.248-3.2503 3.248-3.248a.7986.7986 0 0 0 .2354-.5675.7983.7983 0 0 0-.2354-.567.8015.8015 0 0 0-1.1304 0l-3.25 3.2499-3.246-3.25a.8018.8018 0 0 0-.6939-.2265Z" class="fills"/><path fill="#000" d="M20.9383 15.7816v1.2499h-6.3538v-1.0741l3.0854-3.3662c.3387-.3816.6053-.7114.8008-.9896.1948-.2777.3323-.5273.41-.7483.083-.2256.1235-.4453.1235-.658 0-.2994-.0564-.5619-.1687-.7875-.1092-.2302-.2698-.4101-.482-.5402-.2131-.1348-.4712-.202-.7749-.202-.3515 0-.6467.076-.885.2278-.239.1523-.419.3626-.5405.6316-.1218.2648-.1829.5684-.1829.9116h-1.5686c0-.5513.1255-1.0546.3775-1.5105.2517-.46.6164-.8249 1.0942-1.094.477-.2735 1.052-.41 1.7249-.41.6335 0 1.1716.1066 1.6147.3192.4426.2128.7786.514 1.0093.9048.2344.3908.3516.853.3516 1.3869 0 .2948-.0479.5877-.1438.8789-.0953.2906-.2317.5813-.4097.8724-.1736.286-.3801.5748-.6182.8655-.239.2865-.5022.5776-.7883.8725l-2.051 2.2593Z" class="fills" font-family="roboto" font-size="13.3333" font-weight="500" style="white-space:pre"/></g></g></g></g></svg>
